X:1
T: Double Visit
N:
C:
S:Tune is "Captain Tom"
A:
O:
R:
M:6/8
K:G
I:speed 170
%W: A
% voice 1 (1 lines, 19 notes)
K:G
M:6/8
L:1/16
B c |d4 z2 e4 z2 d6 d2 B2 G2 c2 B2 A2 E2 F2 G2 F6 D4 C2 |
%W:
% voice 1 (1 lines, 21 notes)
B,2 D2 G2 G2 E2 C2 C2 E2 A2 A2 F2 D2 g2 d2 B2 A4 G2 G6G4 B c |
%W:
% voice 1 (1 lines, 17 notes)
d4 z2 e4 z2 d6 d2 B2 G2 c2 B2 A2 E2 F2 G2 F6 D4 C2 |
%W:
% voice 1 (1 lines, 21 notes)
B,2 D2 G2 G2 E2 C2 C2 E2 A2 A2 F2 D2 g2 d2 B2 A4 G2 G6G4 F G |
%W: B
% voice 1 (1 lines, 21 notes)
A4 z2 d4 z2 A3 B A2 A2 F2 D2 F2 A2 d2 e3 f e d ^c6 A4 d e |
%W:
% voice 1 (1 lines, 17 notes)
f4 z2 e4 z2 g4 f2 e3 d ^c B A4 d2 d4 ^c2 d6d4 d2 |
%W:
% voice 1 (1 lines, 23 notes)
g2 d2 B2 G2 B2 d2 g6 e6 e2 c2 A2 F2 A2 d2 f6 d4 c2 |B2 A2 G2 E2 F2 G2
%W:
% voice 1 (1 lines, 22 notes)
F6 D4 C2 B,2 D2 G2 G2 E2 C2 C2 E2 A2 A2 F2 D2 |g2 d2 B2 A4 G2 G6G4 ||
